X:1
T:Forget Me Not
R:reel
B:Ryan's Mammoth Collection
N: 378
Z: Contributed by Ray Davies,  ray:davies99.freeserve.co.uk
M:2/4
L:1/16
K:G
uG2|\
"1"G3"4"e dBB"4"e | dBB"4"e "^SEGUE"dBdg |\
"1"G3.e dBBd | egdB AGED |
"1"G3e dBBe | dBBe dBdg | "1"G3e dBBd | egdB A2:|
|:vga|\
bggb affa | geeg dBBg | bggb affa | gedB .A2vga |
bggb affa | geeg dBBg | bgaf gefd | ((3efg).d.B A2:|
